X:1
T: Crooked Road to Dublin
M: 4/4
L: 1/8
K: Gmaj
||: G2AG FGAF |G2FG AdcA |G2AG FGAg |fdcA dBcA |
|G2AG FGAF |G2FG AdcA|GBAG FGAg| fdcA d2[1cA :|[2Bc |
|dgg2 fgaf|dgg2 afge |dgg2 fgag |fdcA d2Bc |
| dgg2 fgaf |dgg2 a2ga |bgaf gbag| fdcA dB [2cA :|[1c2 :||

